X: 175
T: Doubling's of Johnson's Troop
B: C. & S. Thompson, "The Compleat Tutor for the Fife" c.1760 p.17 #5
S: http://imslp.org/wiki/The_Compleat_Tutor_for_the_Fife_(Anonymous)
Z: 2014 John Chambers <jc:trillian.mit.edu>
N: The title uses apostrophes oddly.
M: 6/8
L: 1/8
K: G
% - - - - - - - - - - - - - - - - - - - - - - - - -
B/c/ |\
dBg ded | cAa cdc | BGB cAc | BGB TA2(G//A//B//c//) |\
dBe Te3 | cAd Td3 | BGB cAc | AGF G2 :|
% - - - - - - - - - - - - - - - - - - - - - - - - -

%%sep 1 1 500
%%sep 1 1 500

